icons/circle/48/cups-launcher.svg

<svg xmlns="http://www.w3.org/2000/svg" viewBox="0 0 48 48">
  <defs>
    <linearGradient id="a" x1="1" x2="47" gradientUnits="userSpaceOnUse" gradientTransform="rotate(-90 24 24)">
      <stop stop-color="#333"/>
      <stop offset="1" stop-color="#3d3d3d"/>
    </linearGradient>
  </defs>
  <path d="M36.31 5c5.859 4.062 9.688 10.831 9.688 18.5 0 12.426-10.07 22.5-22.5 22.5-7.669 0-14.438-3.828-18.5-9.688a23.24 23.24 0 0 0 3.781 4.969 22.923 22.923 0 0 0 15.469 5.969c12.703 0 23-10.298 23-23a22.92 22.92 0 0 0-5.969-15.469A23.216 23.216 0 0 0 36.31 5zm4.969 3.781A22.911 22.911 0 0 1 47.498 24.5c0 12.703-10.297 23-23 23a22.909 22.909 0 0 1-15.719-6.219C12.939 45.425 18.662 48 24.998 48c12.703 0 23-10.298 23-23 0-6.335-2.575-12.06-6.719-16.219z" opacity=".05"/>
  <path d="M41.28 8.781a22.923 22.923 0 0 1 5.969 15.469c0 12.703-10.297 23-23 23A22.92 22.92 0 0 1 8.78 41.281 22.911 22.911 0 0 0 24.499 47.5c12.703 0 23-10.298 23-23A22.909 22.909 0 0 0 41.28 8.781z" opacity=".1"/>
  <path d="M31.25 2.375C39.865 5.529 46 13.792 46 23.505c0 12.426-10.07 22.5-22.5 22.5-9.708 0-17.971-6.135-21.12-14.75a23 23 0 0 0 44.875-7 23 23 0 0 0-16-21.875z" opacity=".2"/>
  <path d="M24 1c12.703 0 23 10.297 23 23S36.703 47 24 47 1 36.703 1 24 11.297 1 24 1z" fill="url(#a)"/>
  <path d="M25 10a15 15 0 0 0-15 15 15 15 0 0 0 15 15 15 15 0 0 0 15-15 15 15 0 0 0-15-15m0 2a13 13 0 0 1 13 13 13 13 0 0 1-13 13 13 13 0 0 1-13-13 13 13 0 0 1 13-13m-4.25 3a.75.75 0 0 0-.75.75V21h-3.25a.747.747 0 0 0-.75.746v7.504c0 .414.336.75.75.75H19v5h12v-5h2.25a.75.75 0 0 0 .75-.75v-7.504a.747.747 0 0 0-.75-.746H30v-5.25a.75.75 0 0 0-.75-.75h-8.5z" opacity=".1"/>
  <path d="M19.75 14h8.5a.75.75 0 0 1 .75.75v9a.75.75 0 0 1-.75.75h-8.5a.75.75 0 0 1-.75-.75v-9a.75.75 0 0 1 .75-.75" fill="#a0a0a0"/>
  <path d="M15.75 20h16.5c.414 0 .75.332.75.746v7.504a.75.75 0 0 1-.75.75h-16.5a.75.75 0 0 1-.75-.75v-7.504c0-.414.336-.746.75-.746m0 0" fill="#d2d2d2"/>
  <path d="M18 25h12v9H18" fill="#f9f9f9"/>
  <path d="M16 22.496v4.5l2-1.496v1.496l2-1.496v1.496l3-2.246-3-2.254V24l-2-1.504V24" fill="#007f7f"/>
  <path d="M24.22 9a15 15 0 0 0-10.826 4.391c-5.859 5.858-5.859 15.357 0 21.21 5.858 5.859 15.357 5.859 21.21 0l-1.42-1.42a12.993 12.993 0 0 1-22.188-9.187c0-7.18 5.82-13 13-13a12.993 12.993 0 0 1 9.188 3.813l1.42-1.42a15.004 15.004 0 0 0-10.389-4.391" fill="#f9f9f9"/>
  <g>
    <path d="M40.03 7.531A22.922 22.922 0 0 1 45.999 23c0 12.703-10.297 23-23 23A22.92 22.92 0 0 1 7.53 40.031C11.708 44.322 17.54 47 23.999 47c12.703 0 23-10.298 23-23 0-6.462-2.677-12.291-6.969-16.469z" opacity=".1"/>
  </g>
  <path d="M34.609 13.391l-1.42 1.42a12.988 12.988 0 0 1 3.813 9.187c0 3.447-1.374 6.752-3.813 9.188l1.42 1.42a15.001 15.001 0 0 0 0-21.214z" fill="#646464"/>
</svg>

<svg xmlns="http://www.w3.org/2000/svg" viewBox="0 0 48 48">
 <defs>
  <linearGradient id="linearGradient3764" x1="1" x2="47" gradientUnits="userSpaceOnUse" gradientTransform="matrix(0,-1,1,0,-1.5e-6,47.999998)">
   <stop style="stop-color:#333;stop-opacity:1"/>
   <stop offset="1" style="stop-color:#3d3d3d;stop-opacity:1"/>
  </linearGradient>
 </defs>
 <g>
  <path d="m 36.31 5 c 5.859 4.062 9.688 10.831 9.688 18.5 c 0 12.426 -10.07 22.5 -22.5 22.5 c -7.669 0 -14.438 -3.828 -18.5 -9.688 c 1.037 1.822 2.306 3.499 3.781 4.969 c 4.085 3.712 9.514 5.969 15.469 5.969 c 12.703 0 23 -10.298 23 -23 c 0 -5.954 -2.256 -11.384 -5.969 -15.469 c -1.469 -1.475 -3.147 -2.744 -4.969 -3.781 z m 4.969 3.781 c 3.854 4.113 6.219 9.637 6.219 15.719 c 0 12.703 -10.297 23 -23 23 c -6.081 0 -11.606 -2.364 -15.719 -6.219 c 4.16 4.144 9.883 6.719 16.219 6.719 c 12.703 0 23 -10.298 23 -23 c 0 -6.335 -2.575 -12.06 -6.719 -16.219 z" style="opacity:0.05"/>
  <path d="m 41.28 8.781 c 3.712 4.085 5.969 9.514 5.969 15.469 c 0 12.703 -10.297 23 -23 23 c -5.954 0 -11.384 -2.256 -15.469 -5.969 c 4.113 3.854 9.637 6.219 15.719 6.219 c 12.703 0 23 -10.298 23 -23 c 0 -6.081 -2.364 -11.606 -6.219 -15.719 z" style="opacity:0.1"/>
  <path d="m 31.25 2.375 c 8.615 3.154 14.75 11.417 14.75 21.13 c 0 12.426 -10.07 22.5 -22.5 22.5 c -9.708 0 -17.971 -6.135 -21.12 -14.75 a 23 23 0 0 0 44.875 -7 a 23 23 0 0 0 -16 -21.875 z" style="opacity:0.2"/>
 </g>
 <g>
  <path d="m 24 1 c 12.703 0 23 10.297 23 23 c 0 12.703 -10.297 23 -23 23 -12.703 0 -23 -10.297 -23 -23 0 -12.703 10.297 -23 23 -23 z" style="fill:url(#linearGradient3764);fill-opacity:1"/>
 </g>
 <g>
  <g>
   <g transform="translate(1,1)">
    <g style="opacity:0.1">
     <!-- color: #3d3d3d -->
    </g>
   </g>
  </g>
 </g>
 <g>
  <g>
   <!-- color: #3d3d3d -->
   <g>
    <path d="M 25 10 A 15 15 0 0 0 10 25 15 15 0 0 0 25 40 15 15 0 0 0 40 25 15 15 0 0 0 25 10 m 0 2 A 13 13 0 0 1 38 25 13 13 0 0 1 25 38 13 13 0 0 1 12 25 13 13 0 0 1 25 12 m -4.25 3 C 20.336 15 20 15.336 20 15.75 L 20 21 16.75 21 C 16.336 21 16 21.332 16 21.746 L 16 29.25 c 0 0.414 0.336 0.75 0.75 0.75 l 2.25 0 0 5 12 0 0 -5 2.25 0 C 33.664 30 34 29.664 34 29.25 l 0 -7.504 C 34 21.332 33.664 21 33.25 21 L 30 21 30 15.75 C 30 15.336 29.664 15 29.25 15 l -8.5 0 z" style="fill:#000;opacity:0.1;fill-opacity:1;stroke:none;fill-rule:nonzero"/>
    <path d="m 19.75,14 8.5,0 c 0.414,0 0.75,0.336 0.75,0.75 l 0,9 c 0,0.414 -0.336,0.75 -0.75,0.75 l -8.5,0 C 19.336,24.5 19,24.164 19,23.75 l 0,-9 C 19,14.336 19.336,14 19.75,14" style="fill:#a0a0a0;fill-opacity:1;stroke:none;fill-rule:nonzero"/>
    <path d="m 15.75,20 16.5,0 c 0.414,0 0.75,0.332 0.75,0.746 l 0,7.504 C 33,28.664 32.664,29 32.25,29 l -16.5,0 C 15.336,29 15,28.664 15,28.25 l 0,-7.504 C 15,20.332 15.336,20 15.75,20 m 0,0" style="fill:#d2d2d2;fill-opacity:1;stroke:none;fill-rule:nonzero"/>
    <path d="m 18 25 12 0 0 9 -12 0" style="fill:#f9f9f9;fill-opacity:1;stroke:none;fill-rule:nonzero"/>
    <path d="m 16 22.496 0 4.5 l 2 -1.496 0 1.496 2 -1.496 0 1.496 3 -2.246 -3 -2.254 0 1.504 -2 -1.504 0 1.504" style="fill:#007f7f;fill-opacity:1;stroke:none;fill-rule:nonzero"/>
   </g>
  </g>
 </g>
 <path d="m 24.22 9 c -4.054 -0.059 -7.959 1.524 -10.826 4.391 -5.859 5.858 -5.859 15.357 0 21.21 5.858 5.859 15.357 5.859 21.21 0 l -1.42 -1.42 c -2.436 2.439 -5.741 3.812 -9.188 3.813 -7.18 0.002 -13 -5.82 -13 -13 0 -7.18 5.82 -13 13 -13 3.447 0.001 6.752 1.374 9.188 3.813 l 1.42 -1.42 c -2.76 -2.759 -6.486 -4.334 -10.389 -4.391" style="fill:#f9f9f9;opacity:1;fill-opacity:1;stroke:none"/>
 <g>
  <path d="m 40.03 7.531 c 3.712 4.084 5.969 9.514 5.969 15.469 0 12.703 -10.297 23 -23 23 c -5.954 0 -11.384 -2.256 -15.469 -5.969 4.178 4.291 10.01 6.969 16.469 6.969 c 12.703 0 23 -10.298 23 -23 0 -6.462 -2.677 -12.291 -6.969 -16.469 z" style="opacity:0.1"/>
 </g>
 <path d="m 34.609 13.391 -1.42 1.42 c 2.439 2.436 3.813 5.741 3.813 9.187 0 3.447 -1.374 6.752 -3.813 9.188 l 1.42 1.42 c 2.813 -2.813 4.393 -6.629 4.393 -10.607 0 -3.978 -1.58 -7.794 -4.393 -10.607 z" style="fill:#646464;opacity:1;fill-opacity:1;stroke:none"/>
</svg>
